static/images/logo_eb_en.svg

<?xml version="1.0" encoding="UTF-8"?>
<svg xmlns="http://www.w3.org/2000/svg" xmlns:xlink="http://www.w3.org/1999/xlink" width="155pt" height="22pt" viewBox="0 0 155 22" version="1.1">
<g>
<path fill="#FFFFFF" d="
M24.527,17.832v2.879h0.715c0.992,0,1.684,-0.082,1.684,-1.426c0,-1.355,-0.703,-1.453,-1.684,-1.453ZM24.527,13.953v2.879h0.434c0.988,0,1.695,-0.098,1.695,-1.453c0,-1.344,-0.707,-1.426,-1.695,-1.426ZM23.277,12.922h1.723c1.734,0,2.945,0.449,2.945,2.418c0,1.016,-0.41,1.598,-0.992,1.926c0.734,0.281,1.262,0.895,1.262,2.059c0,1.941,-1.191,2.414,-2.93,2.414h-2.008v-8.816
M29.625,19.082v-6.16h1.246v6.215c0,1.301,0.449,1.68,1.355,1.68c0.914,0,1.359,-0.379,1.359,-1.68v-6.215h1.25v6.16c0,2.008,-0.844,2.82,-2.609,2.82c-1.789,0,-2.602,-0.785,-2.602,-2.82
M41.926,21.738h1.25v-8.816h-1.25Z
M45.141,12.922h1.438l2.777,7.027c-0.09,-0.719,-0.176,-1.559,-0.176,-2.348v-4.68h1.195v8.816h-1.438l-2.809,-7.051c0.109,0.719,0.203,1.574,0.203,2.371v4.68h-1.191Z
M52.34,12.922h4.125v1.059h-2.875v2.699h2.316v1.043h-2.316v2.961h2.875v1.055h-4.125Z
M71.422,18.688h1.941l-0.367,-1.465c-0.191,-0.734,-0.434,-1.859,-0.582,-2.836c-0.164,0.977,-0.422,2.102,-0.609,2.836ZM71.762,12.922h1.289l2.348,8.816h-1.305l-0.512,-1.992h-2.402l-0.504,1.992h-1.262l2.348,-8.816
M77.621,13.953v6.758h0.965c1.273,0,1.652,-0.586,1.652,-3.379c0,-2.797,-0.379,-3.379,-1.652,-3.379ZM76.371,12.922h2.309c2.305,0,2.848,1.234,2.848,4.41c0,3.133,-0.555,4.406,-2.848,4.406h-2.309v-8.816
M83.152,12.922h1.617l1.543,4.641l1.562,-4.641h1.562v8.816h-1.195v-4.582c0,-0.977,0.066,-1.996,0.148,-2.781l-1.602,4.746h-0.988l-1.613,-4.762c0.078,0.789,0.16,1.82,0.16,2.797v4.582h-1.195Z
M91.398,21.738h1.25v-8.816h-1.25Z
M94.613,12.922h1.438l2.781,7.027c-0.094,-0.719,-0.176,-1.559,-0.176,-2.348v-4.68h1.195v8.816h-1.441l-2.805,-7.051c0.109,0.719,0.203,1.574,0.203,2.371v4.68h-1.195Z
M101.812,21.738h1.25v-8.816h-1.25Z
M109.105,12.922h5.059v1.059h-1.914v7.758h-1.246v-7.758h-1.898Z
M116.453,13.98v3.109h0.664c0.98,0,1.629,-0.207,1.629,-1.562c0,-1.344,-0.648,-1.547,-1.629,-1.547ZM115.207,12.922h2.035c1.625,0,2.793,0.609,2.793,2.605c0,1.398,-0.68,2.074,-1.531,2.387l1.871,3.824h-1.426l-1.652,-3.594h-0.844v3.594h-1.246v-8.816
M122.754,18.688h1.938l-0.367,-1.465c-0.188,-0.734,-0.43,-1.859,-0.582,-2.836c-0.164,0.977,-0.422,2.102,-0.609,2.836ZM123.094,12.922h1.289l2.344,8.816h-1.301l-0.516,-1.992h-2.402l-0.5,1.992h-1.262l2.348,-8.816
M126.578,12.922h5.059v1.059h-1.91v7.758h-1.25v-7.758h-1.898Z
M132.68,21.738h1.25v-8.816h-1.25Z
M139.68,17.332c0,-2.766,-0.285,-3.488,-1.426,-3.488c-1.141,0,-1.41,0.723,-1.41,3.488c0,2.766,0.27,3.484,1.41,3.484c1.141,0,1.426,-0.719,1.426,-3.484ZM135.555,17.332c0,-3.648,0.871,-4.57,2.699,-4.57c1.887,0,2.715,0.879,2.715,4.57c0,3.66,-0.867,4.57,-2.715,4.57c-1.871,0,-2.699,-0.867,-2.699,-4.57
M142.594,12.922h1.438l2.781,7.027c-0.094,-0.719,-0.176,-1.559,-0.176,-2.348v-4.68h1.191v8.816h-1.434l-2.809,-7.051c0.105,0.719,0.199,1.574,0.199,2.371v4.68h-1.191Z
M23.277,0.48h3.988v1.059h-2.738v2.699h2.195v1.043h-2.195v4.016h-1.25Z
M29.137,6.246h1.941l-0.367,-1.465c-0.191,-0.734,-0.434,-1.859,-0.582,-2.836c-0.164,0.977,-0.422,2.102,-0.609,2.836ZM29.477,0.48h1.289l2.344,8.816h-1.301l-0.516,-1.992h-2.398l-0.504,1.992h-1.262l2.348,-8.816
M33.746,4.891c0,-3.297,0.723,-4.57,2.863,-4.57c0.652,0,1.234,0.16,1.52,0.324v1.152c-0.324,-0.176,-0.895,-0.352,-1.438,-0.352c-1.289,0,-1.656,0.582,-1.656,3.445c0,2.887,0.395,3.457,1.656,3.457c0.555,0,1.195,-0.191,1.52,-0.379v1.152c-0.285,0.164,-0.965,0.34,-1.574,0.34c-2.32,0.012,-2.891,-1.277,-2.891,-4.57
M39.426,6.641v-6.16h1.246v6.215c0,1.301,0.449,1.68,1.355,1.68c0.91,0,1.359,-0.379,1.359,-1.68v-6.215h1.246v6.16c0,2.008,-0.84,2.82,-2.605,2.82c-1.789,0,-2.602,-0.789,-2.602,-2.82
M46.531,0.48h1.246v7.758h2.742v1.059h-3.988Z
M50.086,0.48h5.059v1.059h-1.914v7.758h-1.246v-7.758h-1.898Z
M58.043,5.637l-2.414,-5.156h1.367l1.047,2.375c0.242,0.566,0.473,1.18,0.621,1.723c0.164,-0.543,0.41,-1.156,0.652,-1.723l1.047,-2.375h1.328l-2.402,5.156v3.66h-1.246Z
M68.855,4.891c0,-2.77,-0.285,-3.488,-1.426,-3.488c-1.137,0,-1.41,0.719,-1.41,3.488c0,2.766,0.273,3.484,1.41,3.484c1.141,0,1.426,-0.719,1.426,-3.484ZM64.73,4.891c0,-3.652,0.871,-4.57,2.699,-4.57c1.887,0,2.715,0.879,2.715,4.57c0,3.66,-0.867,4.57,-2.715,4.57c-1.871,0,-2.699,-0.867,-2.699,-4.57
M71.77,0.48h3.988v1.059h-2.738v2.699h2.195v1.043h-2.195v4.016h-1.25Z
M79.598,0.48h4.125v1.059h-2.875v2.699h2.32v1.043h-2.32v2.957h2.875v1.059h-4.125Z
M84.82,4.891c0,-3.297,0.719,-4.57,2.863,-4.57c0.648,0,1.234,0.16,1.52,0.324v1.152c-0.328,-0.176,-0.898,-0.352,-1.438,-0.352c-1.289,0,-1.656,0.582,-1.656,3.445c0,2.887,0.395,3.457,1.656,3.457c0.555,0,1.191,-0.191,1.516,-0.379v1.152c-0.285,0.164,-0.961,0.34,-1.57,0.34c-2.32,0.012,-2.891,-1.277,-2.891,-4.57
M94.328,4.891c0,-2.77,-0.285,-3.488,-1.426,-3.488c-1.137,0,-1.41,0.719,-1.41,3.488c0,2.766,0.273,3.484,1.41,3.484c1.141,0,1.426,-0.719,1.426,-3.484ZM90.203,4.891c0,-3.652,0.871,-4.57,2.699,-4.57c1.887,0,2.715,0.879,2.715,4.57c0,3.66,-0.867,4.57,-2.715,4.57c-1.871,0,-2.699,-0.867,-2.699,-4.57
M97.242,0.48h1.438l2.781,7.027c-0.094,-0.719,-0.176,-1.559,-0.176,-2.348v-4.68h1.195v8.816h-1.441l-2.805,-7.055c0.105,0.723,0.203,1.574,0.203,2.375v4.68h-1.195Z
M108.23,4.891c0,-2.77,-0.285,-3.488,-1.426,-3.488c-1.141,0,-1.41,0.719,-1.41,3.488c0,2.766,0.27,3.484,1.41,3.484c1.141,0,1.426,-0.719,1.426,-3.484ZM104.105,4.891c0,-3.652,0.867,-4.57,2.699,-4.57c1.887,0,2.711,0.879,2.711,4.57c0,3.66,-0.867,4.57,-2.711,4.57c-1.871,0,-2.699,-0.867,-2.699,-4.57
M111.145,0.48h1.613l1.547,4.641l1.559,-4.641h1.562v8.816h-1.195v-4.582c0,-0.98,0.066,-1.996,0.148,-2.785l-1.602,4.75h-0.988l-1.613,-4.762c0.078,0.789,0.16,1.816,0.16,2.797v4.582h-1.191Z
M119.391,9.297h1.246v-8.816h-1.246Z
M122.266,4.891c0,-3.297,0.715,-4.57,2.859,-4.57c0.652,0,1.234,0.16,1.52,0.324v1.152c-0.324,-0.176,-0.895,-0.352,-1.438,-0.352c-1.289,0,-1.656,0.582,-1.656,3.445c0,2.887,0.395,3.457,1.656,3.457c0.555,0,1.195,-0.191,1.52,-0.379v1.152c-0.285,0.164,-0.965,0.34,-1.574,0.34c-2.32,0.012,-2.887,-1.277,-2.887,-4.57
M136.871,6.246h1.941l-0.367,-1.465c-0.191,-0.734,-0.434,-1.859,-0.586,-2.836c-0.16,0.977,-0.418,2.102,-0.609,2.836ZM137.211,0.48h1.289l2.348,8.816h-1.305l-0.516,-1.992h-2.398l-0.504,1.992h-1.262l2.348,-8.816
M141.82,0.48h1.438l2.781,7.027c-0.094,-0.719,-0.176,-1.559,-0.176,-2.348v-4.68h1.195v8.816h-1.441l-2.805,-7.055c0.105,0.723,0.203,1.574,0.203,2.375v4.68h-1.195Z
M150.27,1.512v6.754h0.965c1.273,0,1.652,-0.582,1.652,-3.375c0,-2.797,-0.379,-3.379,-1.652,-3.379ZM149.023,0.48h2.305c2.305,0,2.848,1.234,2.848,4.41c0,3.133,-0.555,4.406,-2.848,4.406h-2.305v-8.816
M38.949,13.832c0.551,-0.004,1.07,0.18,1.309,0.367v-1.125c-0.238,-0.148,-0.824,-0.309,-1.418,-0.309c-1.656,0,-2.566,0.941,-2.566,2.305c0,1.141,0.484,1.688,1.258,2.355l0.711,0.613c0.586,0.492,0.949,0.867,0.949,1.602c0,0.855,-0.566,1.199,-1.418,1.199c-0.645,0,-1.18,-0.184,-1.488,-0.395v1.145c0.273,0.156,0.836,0.316,1.602,0.316c1.648,-0.004,2.562,-0.941,2.562,-2.309c0.004,-1.137,-0.48,-1.688,-1.258,-2.355l-0.711,-0.613c-0.586,-0.5,-0.949,-0.863,-0.949,-1.598c0.004,-0.863,0.566,-1.199,1.418,-1.199
M60.051,13.832c0.551,-0.004,1.07,0.18,1.309,0.367v-1.125c-0.238,-0.148,-0.824,-0.309,-1.418,-0.309c-1.656,0,-2.566,0.941,-2.566,2.305c0,1.141,0.48,1.688,1.258,2.355l0.711,0.613c0.586,0.492,0.949,0.867,0.949,1.602c0,0.855,-0.566,1.199,-1.418,1.199c-0.645,0,-1.18,-0.184,-1.488,-0.395v1.145c0.273,0.156,0.836,0.316,1.602,0.316c1.652,-0.004,2.562,-0.941,2.562,-2.309c0.004,-1.137,-0.48,-1.688,-1.258,-2.355l-0.707,-0.613c-0.59,-0.5,-0.953,-0.863,-0.953,-1.598c0.004,-0.863,0.566,-1.199,1.418,-1.199
M64.852,13.832c0.551,-0.004,1.07,0.18,1.309,0.367v-1.125c-0.238,-0.148,-0.824,-0.309,-1.418,-0.309c-1.652,0,-2.566,0.941,-2.566,2.305c0,1.141,0.484,1.688,1.258,2.355l0.711,0.613c0.586,0.492,0.949,0.867,0.949,1.602c0,0.855,-0.566,1.199,-1.418,1.199c-0.645,0,-1.18,-0.184,-1.484,-0.395v1.145c0.27,0.156,0.836,0.316,1.598,0.316c1.652,-0.004,2.562,-0.941,2.562,-2.309c0.004,-1.137,-0.48,-1.688,-1.258,-2.355l-0.707,-0.613c-0.59,-0.5,-0.953,-0.863,-0.953,-1.598c0.004,-0.863,0.566,-1.199,1.418,-1.199
M107.18,13.832c0.551,-0.004,1.07,0.18,1.309,0.367v-1.125c-0.238,-0.148,-0.824,-0.309,-1.418,-0.309c-1.656,0,-2.566,0.941,-2.566,2.305c0,1.141,0.48,1.688,1.258,2.355l0.711,0.613c0.586,0.492,0.949,0.867,0.949,1.602c0,0.855,-0.566,1.199,-1.418,1.199c-0.645,0,-1.18,-0.184,-1.488,-0.395v1.145c0.273,0.156,0.84,0.316,1.602,0.316c1.652,-0.004,2.562,-0.941,2.562,-2.309c0.004,-1.137,-0.48,-1.688,-1.258,-2.355l-0.707,-0.613c-0.59,-0.5,-0.953,-0.863,-0.953,-1.598c0.004,-0.863,0.566,-1.199,1.418,-1.199
M130.301,1.387c0.551,0,1.07,0.18,1.309,0.367v-1.125c-0.238,-0.145,-0.824,-0.309,-1.418,-0.309c-1.656,0,-2.566,0.941,-2.566,2.309c0,1.137,0.48,1.684,1.258,2.355l0.711,0.613c0.586,0.488,0.949,0.867,0.949,1.602c0,0.855,-0.566,1.195,-1.418,1.195c-0.645,0,-1.18,-0.18,-1.488,-0.391v1.145c0.27,0.156,0.836,0.316,1.598,0.312c1.652,-0.004,2.566,-0.941,2.566,-2.305c0.004,-1.137,-0.484,-1.688,-1.258,-2.355l-0.711,-0.613c-0.586,-0.504,-0.949,-0.867,-0.949,-1.598c0.004,-0.863,0.562,-1.199,1.418,-1.203
M17.777,20.492h-16.27v-20.012h-1.246v21.258h18.766Z
M2.754,19.246h1.246v-10.766h-1.246Z
M5.246,19.246h1.25v-6.785h-1.25Z
M7.742,19.246h1.25v-10.766h-1.25Z
M10.238,19.246h1.246v-13.414h-1.246Z
M12.73,19.246h1.25v-5.461h-1.25Z
"/>
</g>
</svg>

<?xml version="1.0" encoding="UTF-8"?>
<svg xmlns="http://www.w3.org/2000/svg" xmlns:xlink="http://www.w3.org/1999/xlink" width="155pt" height="22pt" viewBox="0 0 155 22" version="1.1">
<g id="surface1">
<path fill="#FFFFFF" d="M24.527,17.832L24.527,20.711L25.242,20.711C26.234,20.711,26.926,20.629,26.926,19.285C26.926,17.93,26.223,17.832,25.242,17.832Z M24.527,13.953L24.527,16.832L24.961,16.832C25.949,16.832,26.656,16.734,26.656,15.379C26.656,14.035,25.949,13.953,24.961,13.953Z M23.277,12.922L25,12.922C26.734,12.922,27.945,13.371,27.945,15.34C27.945,16.355,27.535,16.938,26.953,17.266C27.688,17.547,28.215,18.16,28.215,19.324C28.215,21.266,27.023,21.738,25.285,21.738L23.277,21.738L23.277,12.922"/>
<path fill="#FFFFFF" d="M29.625,19.082L29.625,12.922L30.871,12.922L30.871,19.137C30.871,20.438,31.32,20.816,32.227,20.816C33.141,20.816,33.586,20.438,33.586,19.137L33.586,12.922L34.836,12.922L34.836,19.082C34.836,21.09,33.992,21.902,32.227,21.902C30.438,21.902,29.625,21.117,29.625,19.082"/>
<path fill="#FFFFFF" d="M41.926,21.738L43.176,21.738L43.176,12.922L41.926,12.922Z M41.926,21.738"/>
<path fill="#FFFFFF" d="M45.141,12.922L46.578,12.922L49.355,19.949C49.266,19.23,49.18,18.391,49.18,17.602L49.18,12.922L50.375,12.922L50.375,21.738L48.938,21.738L46.129,14.688C46.238,15.406,46.332,16.262,46.332,17.059L46.332,21.738L45.141,21.738L45.141,12.922"/>
<path fill="#FFFFFF" d="M52.34,12.922L56.465,12.922L56.465,13.98L53.59,13.98L53.59,16.68L55.906,16.68L55.906,17.723L53.59,17.723L53.59,20.684L56.465,20.684L56.465,21.738L52.34,21.738L52.34,12.922"/>
<path fill="#FFFFFF" d="M71.422,18.688L73.363,18.688L72.996,17.223C72.805,16.488,72.562,15.363,72.414,14.387C72.25,15.363,71.992,16.488,71.805,17.223Z M71.762,12.922L73.051,12.922L75.398,21.738L74.094,21.738L73.582,19.746L71.18,19.746L70.676,21.738L69.414,21.738L71.762,12.922"/>
<path fill="#FFFFFF" d="M77.621,13.953L77.621,20.711L78.586,20.711C79.859,20.711,80.238,20.125,80.238,17.332C80.238,14.535,79.859,13.953,78.586,13.953Z M76.371,12.922L78.68,12.922C80.984,12.922,81.527,14.156,81.527,17.332C81.527,20.465,80.973,21.738,78.68,21.738L76.371,21.738L76.371,12.922"/>
<path fill="#FFFFFF" d="M83.152,12.922L84.77,12.922L86.312,17.562L87.875,12.922L89.438,12.922L89.438,21.738L88.242,21.738L88.242,17.156C88.242,16.18,88.309,15.16,88.391,14.375L86.789,19.121L85.801,19.121L84.188,14.359C84.266,15.148,84.348,16.18,84.348,17.156L84.348,21.738L83.152,21.738L83.152,12.922"/>
<path fill="#FFFFFF" d="M91.398,21.738L92.648,21.738L92.648,12.922L91.398,12.922Z M91.398,21.738"/>
<path fill="#FFFFFF" d="M94.613,12.922L96.051,12.922L98.832,19.949C98.738,19.23,98.656,18.391,98.656,17.602L98.656,12.922L99.852,12.922L99.852,21.738L98.41,21.738L95.605,14.688C95.715,15.406,95.809,16.262,95.809,17.059L95.809,21.738L94.613,21.738L94.613,12.922"/>
<path fill="#FFFFFF" d="M101.812,21.738L103.062,21.738L103.062,12.922L101.812,12.922Z M101.812,21.738"/>
<path fill="#FFFFFF" d="M109.105,12.922L114.164,12.922L114.164,13.98L112.25,13.98L112.25,21.738L111.004,21.738L111.004,13.98L109.105,13.98L109.105,12.922"/>
<path fill="#FFFFFF" d="M116.453,13.98L116.453,17.09L117.117,17.09C118.098,17.09,118.746,16.883,118.746,15.527C118.746,14.184,118.098,13.98,117.117,13.98Z M115.207,12.922L117.242,12.922C118.867,12.922,120.035,13.531,120.035,15.527C120.035,16.926,119.355,17.602,118.504,17.914L120.375,21.738L118.949,21.738L117.297,18.145L116.453,18.145L116.453,21.738L115.207,21.738L115.207,12.922"/>
<path fill="#FFFFFF" d="M122.754,18.688L124.691,18.688L124.324,17.223C124.137,16.488,123.895,15.363,123.742,14.387C123.578,15.363,123.32,16.488,123.133,17.223Z M123.094,12.922L124.383,12.922L126.727,21.738L125.426,21.738L124.91,19.746L122.508,19.746L122.008,21.738L120.746,21.738L123.094,12.922"/>
<path fill="#FFFFFF" d="M126.578,12.922L131.637,12.922L131.637,13.98L129.727,13.98L129.727,21.738L128.477,21.738L128.477,13.98L126.578,13.98L126.578,12.922"/>
<path fill="#FFFFFF" d="M132.68,21.738L133.93,21.738L133.93,12.922L132.68,12.922Z M132.68,21.738"/>
<path fill="#FFFFFF" d="M139.68,17.332C139.68,14.566,139.395,13.844,138.254,13.844C137.113,13.844,136.844,14.566,136.844,17.332C136.844,20.098,137.113,20.816,138.254,20.816C139.395,20.816,139.68,20.098,139.68,17.332Z M135.555,17.332C135.555,13.684,136.426,12.762,138.254,12.762C140.141,12.762,140.969,13.641,140.969,17.332C140.969,20.992,140.102,21.902,138.254,21.902C136.383,21.902,135.555,21.035,135.555,17.332"/>
<path fill="#FFFFFF" d="M142.594,12.922L144.031,12.922L146.812,19.949C146.719,19.23,146.637,18.391,146.637,17.602L146.637,12.922L147.828,12.922L147.828,21.738L146.395,21.738L143.586,14.688C143.691,15.406,143.785,16.262,143.785,17.059L143.785,21.738L142.594,21.738L142.594,12.922"/>
<path fill="#FFFFFF" d="M23.277,0.48L27.266,0.48L27.266,1.539L24.527,1.539L24.527,4.238L26.723,4.238L26.723,5.281L24.527,5.281L24.527,9.297L23.277,9.297L23.277,0.48"/>
<path fill="#FFFFFF" d="M29.137,6.246L31.078,6.246L30.711,4.781C30.52,4.047,30.277,2.922,30.129,1.945C29.965,2.922,29.707,4.047,29.52,4.781Z M29.477,0.48L30.766,0.48L33.109,9.297L31.809,9.297L31.293,7.305L28.895,7.305L28.391,9.297L27.129,9.297L29.477,0.48"/>
<path fill="#FFFFFF" d="M33.746,4.891C33.746,1.594,34.469,0.32,36.609,0.32C37.262,0.32,37.844,0.48,38.129,0.645L38.129,1.797C37.805,1.621,37.234,1.445,36.691,1.445C35.402,1.445,35.035,2.027,35.035,4.891C35.035,7.777,35.43,8.348,36.691,8.348C37.246,8.348,37.887,8.156,38.211,7.969L38.211,9.121C37.926,9.285,37.246,9.461,36.637,9.461C34.316,9.473,33.746,8.184,33.746,4.891"/>
<path fill="#FFFFFF" d="M39.426,6.641L39.426,0.48L40.672,0.48L40.672,6.695C40.672,7.996,41.121,8.375,42.027,8.375C42.938,8.375,43.387,7.996,43.387,6.695L43.387,0.48L44.633,0.48L44.633,6.641C44.633,8.648,43.793,9.461,42.027,9.461C40.238,9.461,39.426,8.672,39.426,6.641"/>
<path fill="#FFFFFF" d="M46.531,0.48L47.777,0.48L47.777,8.238L50.52,8.238L50.52,9.297L46.531,9.297L46.531,0.48"/>
<path fill="#FFFFFF" d="M50.086,0.48L55.145,0.48L55.145,1.539L53.23,1.539L53.23,9.297L51.984,9.297L51.984,1.539L50.086,1.539L50.086,0.48"/>
<path fill="#FFFFFF" d="M58.043,5.637L55.629,0.48L56.996,0.48L58.043,2.855C58.285,3.422,58.516,4.035,58.664,4.578C58.828,4.035,59.074,3.422,59.316,2.855L60.363,0.48L61.691,0.48L59.289,5.637L59.289,9.297L58.043,9.297L58.043,5.637"/>
<path fill="#FFFFFF" d="M68.855,4.891C68.855,2.121,68.57,1.402,67.43,1.402C66.293,1.402,66.02,2.121,66.02,4.891C66.02,7.656,66.293,8.375,67.43,8.375C68.57,8.375,68.855,7.656,68.855,4.891Z M64.73,4.891C64.73,1.238,65.602,0.32,67.43,0.32C69.316,0.32,70.145,1.199,70.145,4.891C70.145,8.551,69.277,9.461,67.43,9.461C65.559,9.461,64.73,8.594,64.73,4.891"/>
<path fill="#FFFFFF" d="M71.77,0.48L75.758,0.48L75.758,1.539L73.02,1.539L73.02,4.238L75.215,4.238L75.215,5.281L73.02,5.281L73.02,9.297L71.77,9.297L71.77,0.48"/>
<path fill="#FFFFFF" d="M79.598,0.48L83.723,0.48L83.723,1.539L80.848,1.539L80.848,4.238L83.168,4.238L83.168,5.281L80.848,5.281L80.848,8.238L83.723,8.238L83.723,9.297L79.598,9.297L79.598,0.48"/>
<path fill="#FFFFFF" d="M84.82,4.891C84.82,1.594,85.539,0.32,87.684,0.32C88.332,0.32,88.918,0.48,89.203,0.645L89.203,1.797C88.875,1.621,88.305,1.445,87.766,1.445C86.477,1.445,86.109,2.027,86.109,4.891C86.109,7.777,86.504,8.348,87.766,8.348C88.32,8.348,88.957,8.156,89.281,7.969L89.281,9.121C88.996,9.285,88.32,9.461,87.711,9.461C85.391,9.473,84.82,8.184,84.82,4.891"/>
<path fill="#FFFFFF" d="M94.328,4.891C94.328,2.121,94.043,1.402,92.902,1.402C91.766,1.402,91.492,2.121,91.492,4.891C91.492,7.656,91.766,8.375,92.902,8.375C94.043,8.375,94.328,7.656,94.328,4.891Z M90.203,4.891C90.203,1.238,91.074,0.32,92.902,0.32C94.789,0.32,95.617,1.199,95.617,4.891C95.617,8.551,94.75,9.461,92.902,9.461C91.031,9.461,90.203,8.594,90.203,4.891"/>
<path fill="#FFFFFF" d="M97.242,0.48L98.68,0.48L101.461,7.508C101.367,6.789,101.285,5.949,101.285,5.16L101.285,0.48L102.48,0.48L102.48,9.297L101.039,9.297L98.234,2.242C98.34,2.965,98.438,3.816,98.438,4.617L98.438,9.297L97.242,9.297L97.242,0.48"/>
<path fill="#FFFFFF" d="M108.23,4.891C108.23,2.121,107.945,1.402,106.805,1.402C105.664,1.402,105.395,2.121,105.395,4.891C105.395,7.656,105.664,8.375,106.805,8.375C107.945,8.375,108.23,7.656,108.23,4.891Z M104.105,4.891C104.105,1.238,104.973,0.32,106.805,0.32C108.691,0.32,109.516,1.199,109.516,4.891C109.516,8.551,108.648,9.461,106.805,9.461C104.934,9.461,104.105,8.594,104.105,4.891"/>
<path fill="#FFFFFF" d="M111.145,0.48L112.758,0.48L114.305,5.121L115.863,0.48L117.426,0.48L117.426,9.297L116.23,9.297L116.23,4.715C116.23,3.734,116.297,2.719,116.379,1.93L114.777,6.68L113.789,6.68L112.176,1.918C112.254,2.707,112.336,3.734,112.336,4.715L112.336,9.297L111.145,9.297L111.145,0.48"/>
<path fill="#FFFFFF" d="M119.391,9.297L120.637,9.297L120.637,0.48L119.391,0.48Z M119.391,9.297"/>
<path fill="#FFFFFF" d="M122.266,4.891C122.266,1.594,122.98,0.32,125.125,0.32C125.777,0.32,126.359,0.48,126.645,0.645L126.645,1.797C126.32,1.621,125.75,1.445,125.207,1.445C123.918,1.445,123.551,2.027,123.551,4.891C123.551,7.777,123.945,8.348,125.207,8.348C125.762,8.348,126.402,8.156,126.727,7.969L126.727,9.121C126.441,9.285,125.762,9.461,125.152,9.461C122.832,9.473,122.266,8.184,122.266,4.891"/>
<path fill="#FFFFFF" d="M136.871,6.246L138.812,6.246L138.445,4.781C138.254,4.047,138.012,2.922,137.859,1.945C137.699,2.922,137.441,4.047,137.25,4.781Z M137.211,0.48L138.5,0.48L140.848,9.297L139.543,9.297L139.027,7.305L136.629,7.305L136.125,9.297L134.863,9.297L137.211,0.48"/>
<path fill="#FFFFFF" d="M141.82,0.48L143.258,0.48L146.039,7.508C145.945,6.789,145.863,5.949,145.863,5.16L145.863,0.48L147.059,0.48L147.059,9.297L145.617,9.297L142.812,2.242C142.918,2.965,143.016,3.816,143.016,4.617L143.016,9.297L141.82,9.297L141.82,0.48"/>
<path fill="#FFFFFF" d="M150.27,1.512L150.27,8.266L151.234,8.266C152.508,8.266,152.887,7.684,152.887,4.891C152.887,2.094,152.508,1.512,151.234,1.512Z M149.023,0.48L151.328,0.48C153.633,0.48,154.176,1.715,154.176,4.891C154.176,8.023,153.621,9.297,151.328,9.297L149.023,9.297L149.023,0.48"/>
<path fill="#FFFFFF" d="M38.949,13.832C39.5,13.828,40.02,14.012,40.258,14.199L40.258,13.074C40.02,12.926,39.434,12.766,38.84,12.766C37.184,12.766,36.273,13.707,36.273,15.07C36.273,16.211,36.758,16.758,37.531,17.426L38.242,18.039C38.828,18.531,39.191,18.906,39.191,19.641C39.191,20.496,38.625,20.84,37.773,20.84C37.129,20.84,36.594,20.656,36.285,20.445L36.285,21.59C36.559,21.746,37.121,21.906,37.887,21.906C39.535,21.902,40.449,20.965,40.449,19.598C40.453,18.461,39.969,17.91,39.191,17.242L38.48,16.629C37.895,16.129,37.531,15.766,37.531,15.031C37.535,14.168,38.098,13.832,38.949,13.832"/>
<path fill="#FFFFFF" d="M60.051,13.832C60.602,13.828,61.121,14.012,61.359,14.199L61.359,13.074C61.121,12.926,60.535,12.766,59.941,12.766C58.285,12.766,57.375,13.707,57.375,15.07C57.375,16.211,57.855,16.758,58.633,17.426L59.344,18.039C59.93,18.531,60.293,18.906,60.293,19.641C60.293,20.496,59.727,20.84,58.875,20.84C58.23,20.84,57.695,20.656,57.387,20.445L57.387,21.59C57.66,21.746,58.223,21.906,58.988,21.906C60.641,21.902,61.551,20.965,61.551,19.598C61.555,18.461,61.07,17.91,60.293,17.242L59.586,16.629C58.996,16.129,58.633,15.766,58.633,15.031C58.637,14.168,59.199,13.832,60.051,13.832"/>
<path fill="#FFFFFF" d="M64.852,13.832C65.402,13.828,65.922,14.012,66.16,14.199L66.16,13.074C65.922,12.926,65.336,12.766,64.742,12.766C63.09,12.766,62.176,13.707,62.176,15.07C62.176,16.211,62.66,16.758,63.434,17.426L64.145,18.039C64.73,18.531,65.094,18.906,65.094,19.641C65.094,20.496,64.527,20.84,63.676,20.84C63.031,20.84,62.496,20.656,62.191,20.445L62.191,21.59C62.461,21.746,63.027,21.906,63.789,21.906C65.441,21.902,66.352,20.965,66.352,19.598C66.355,18.461,65.871,17.91,65.094,17.242L64.387,16.629C63.797,16.129,63.434,15.766,63.434,15.031C63.438,14.168,64,13.832,64.852,13.832"/>
<path fill="#FFFFFF" d="M107.18,13.832C107.73,13.828,108.25,14.012,108.488,14.199L108.488,13.074C108.25,12.926,107.664,12.766,107.07,12.766C105.414,12.766,104.504,13.707,104.504,15.07C104.504,16.211,104.984,16.758,105.762,17.426L106.473,18.039C107.059,18.531,107.422,18.906,107.422,19.641C107.422,20.496,106.855,20.84,106.004,20.84C105.359,20.84,104.824,20.656,104.516,20.445L104.516,21.59C104.789,21.746,105.355,21.906,106.117,21.906C107.77,21.902,108.68,20.965,108.68,19.598C108.684,18.461,108.199,17.91,107.422,17.242L106.715,16.629C106.125,16.129,105.762,15.766,105.762,15.031C105.766,14.168,106.328,13.832,107.18,13.832"/>
<path fill="#FFFFFF" d="M130.301,1.387C130.852,1.387,131.371,1.566,131.609,1.754L131.609,0.629C131.371,0.484,130.785,0.32,130.191,0.32C128.535,0.32,127.625,1.262,127.625,2.629C127.625,3.766,128.105,4.312,128.883,4.984L129.594,5.598C130.18,6.086,130.543,6.465,130.543,7.199C130.543,8.055,129.977,8.395,129.125,8.395C128.48,8.395,127.945,8.215,127.637,8.004L127.637,9.148C127.906,9.305,128.473,9.465,129.234,9.461C130.887,9.457,131.801,8.52,131.801,7.156C131.805,6.02,131.316,5.469,130.543,4.801L129.832,4.188C129.246,3.684,128.883,3.32,128.883,2.59C128.887,1.727,129.445,1.391,130.301,1.387"/>
<path fill="#FFFFFF" d="M17.777,20.492L1.508,20.492L1.508,0.48L0.262,0.48L0.262,21.738L19.027,21.738L17.777,20.492"/>
<path fill="#FFFFFF" d="M2.754,19.246L4,19.246L4,8.48L2.754,8.48Z M2.754,19.246"/>
<path fill="#FFFFFF" d="M5.246,19.246L6.496,19.246L6.496,12.461L5.246,12.461Z M5.246,19.246"/>
<path fill="#FFFFFF" d="M7.742,19.246L8.992,19.246L8.992,8.48L7.742,8.48Z M7.742,19.246"/>
<path fill="#FFFFFF" d="M10.238,19.246L11.484,19.246L11.484,5.832L10.238,5.832Z M10.238,19.246"/>
<path fill="#FFFFFF" d="M12.73,19.246L13.98,19.246L13.98,13.785L12.73,13.785Z M12.73,19.246"/>
</g>
</svg>
